svg/axis_x_arrow_lock.svg

<svg xmlns="http://www.w3.org/2000/svg" viewBox="0 0 24 24"><path d="M21.8 5c.6 0 1.2.6 1.2 1.3v3.5c0 .6-.6 1.2-1.3 1.2h-5.5c-.6 0-1.2-.6-1.2-1.3V6.2c0-.6.6-1.2 1.2-1.2V3.5C16.2 2.1 17.6 1 19 1s2.8 1.1 2.8 2.5zm-1.3 0V3.5c0-.8-.7-1.3-1.5-1.3-.69 0-1.31.38-1.46 1-.04.09-.04.19-.04.3V5zM1.74 19.25l1.47-5.46 1.46 2.53L9 13.82V3h2v10.82l9.39 5.43-1 1.75L10 15.56l-4.33 2.5 1.54 2.65z"/></svg>

<?xml version="1.0" encoding="UTF-8"?><!DOCTYPE svg PUBLIC "-//W3C//DTD SVG 1.1//EN" "http://www.w3.org/Graphics/SVG/1.1/DTD/svg11.dtd"><svg xmlns="http://www.w3.org/2000/svg" xmlns:xlink="http://www.w3.org/1999/xlink" version="1.1" id="mdi-axis-x-arrow-lock" width="24" height="24" viewBox="0 0 24 24"><path d="M21.8,5C22.4,5 23,5.6 23,6.3V9.8C23,10.4 22.4,11 21.7,11H16.2C15.6,11 15,10.4 15,9.7V6.2C15,5.6 15.6,5 16.2,5V3.5C16.2,2.1 17.6,1 19,1C20.4,1 21.8,2.1 21.8,3.5V5M20.5,5V3.5C20.5,2.7 19.8,2.2 19,2.2C18.31,2.2 17.69,2.58 17.54,3.2C17.5,3.29 17.5,3.39 17.5,3.5V5H20.5M1.74,19.25L3.21,13.79L4.67,16.32L9,13.82V3H11V13.82L20.39,19.25L19.39,21L10,15.56L5.67,18.06L7.21,20.71L1.74,19.25Z" /></svg>
